X:122
T:Heyty Cooper. VWMLa.122
%%VWML:Anon2-3049-p69-0
F:http://www.vwml.org/record/Anon2/3049/p69
S:Anon. MS, late 18thC, Vaughan Williams Mem. Library
O:England;Yorkshire
Z:vmp/efdss.Simon Wilson. Reviewed PJH 2008.
M:6/8
L:1/8
Q:3/8=120
K:D
D3 F2G|A2d AGF|G2e F2d|EFD CB,A,|\
D3 F2G|A2d AGF|G2e E2c|d3 D3:|
|:d2e f2g|a2g fed|BdB efg|fed cBA|\
d2e f2g|a2g fed|BdB gec|d3 D3:|
